X: 6
%T: Smash the Windows
I: Smash the Windows	J-2	D	jig
T: Roaring Jelly
I: Roaring Jelly	J-2	D	jig
%%musicspace	0.0cm
M: 6/8
R: jig
K: D
A,| "D"DED F2A| d2f "A"ecA| "G"G2B "D"F2A| "A"E2F GFE|
    "D"DED F2A| d2f "A"ecA| "G"Bgf "A"edc| "D"(d3 d2) :|
a| "D"a2f d2f| A2a agf| "A"g2e c2e| A2g gfe|
   "D"f2 d "A"g2 e| "D"a2 f "G"bag| "D"fed "A"edc| "D"(d3 d2) a|
   "D"agf fed| Adf agf| "A"gfe ecA| Ace gfe|
   "D"fed "A"gfe| "D"agf "G"bag| "D"fed "A"edc| "D"(d3 d2) |]
%%text Roaring Jelly  J-2

